assets/img/braze_icons/bluetooth-signal.svg

<svg fill="none" height="24" viewBox="0 0 24 24" width="24" xmlns="http://www.w3.org/2000/svg"><g clip-rule="evenodd" fill="#801ed7" fill-rule="evenodd"><path d="m19.5606 5.68824c.4483-.32252 1.0732-.22053 1.3957.2278 1.232 1.71251 1.9578 3.81496 1.9578 6.08396s-.7258 4.3715-1.9578 6.084c-.3225.4483-.9474.5503-1.3957.2278s-.5503-.9474-.2278-1.3958c.9953-1.3835 1.5813-3.0799 1.5813-4.916s-.586-3.53244-1.5813-4.91602c-.3225-.44833-.2205-1.07323.2278-1.39574z"/><path d="m16.4279 8.03707c.453-.31597 1.0763-.20489 1.3923.24808.7347 1.05325 1.1657 2.33525 1.1657 3.71495s-.431 2.6617-1.1657 3.715c-.316.4529-.9393.564-1.3923.2481-.4529-.316-.564-.9394-.2481-1.3923.5082-.7285.8061-1.6134.8061-2.5708s-.2979-1.8423-.8061-2.57075c-.3159-.45298-.2048-1.07632.2481-1.39228z"/><path d="m7.57587 1.09442c.35138-.164577.76626-.111032 1.06434.13737l5.99999 5c.228.18999.3598.47144.3598.76822s-.1318.57823-.3598.76822l-5.07813 4.23177 5.07813 4.2318c.228.19.3598.4714.3598.7682s-.1318.5782-.3598.7682l-5.99999 5c-.29808.2484-.71296.302-1.06434.1374s-.57584-.5176-.57584-.9056v-7.8649l-4.35982 3.6331c-.42428.3536-1.05484.2963-1.40841-.128-.35356-.4243-.296236-1.0548.12804-1.4084l5.07814-4.2318-5.07814-4.23177c-.424276-.35356-.4816-.98413-.12804-1.4084.35357-.42428.98413-.4816 1.40841-.12804l4.35982 3.63318v-7.86496c0-.38802.22446-.74101.57584-.90559zm1.42415 13.04068 3.43798 2.8649-3.43798 2.865zm0-4.27013v-5.72992l3.43798 2.86496z"/></g></svg>

<svg width="24" height="24" viewBox="0 0 24 24" fill="none" xmlns="http://www.w3.org/2000/svg">
<path fill-rule="evenodd" clip-rule="evenodd" d="M19.5606 5.68824C20.0089 5.36572 20.6338 5.46771 20.9563 5.91604C22.1883 7.62855 22.9141 9.731 22.9141 12C22.9141 14.269 22.1883 16.3715 20.9563 18.084C20.6338 18.5323 20.0089 18.6343 19.5606 18.3118C19.1123 17.9893 19.0103 17.3644 19.3328 16.916C20.3281 15.5325 20.9141 13.8361 20.9141 12C20.9141 10.1639 20.3281 8.46756 19.3328 7.08398C19.0103 6.63565 19.1123 6.01075 19.5606 5.68824Z" fill="#801ED7"/>
<path fill-rule="evenodd" clip-rule="evenodd" d="M16.4279 8.03707C16.8809 7.7211 17.5042 7.83218 17.8202 8.28515C18.5549 9.3384 18.9859 10.6204 18.9859 12.0001C18.9859 13.3798 18.5549 14.6618 17.8202 15.7151C17.5042 16.168 16.8809 16.2791 16.4279 15.9632C15.975 15.6472 15.8639 15.0238 16.1798 14.5709C16.688 13.8424 16.9859 12.9575 16.9859 12.0001C16.9859 11.0427 16.688 10.1578 16.1798 9.42935C15.8639 8.97637 15.975 8.35303 16.4279 8.03707Z" fill="#801ED7"/>
<path fill-rule="evenodd" clip-rule="evenodd" d="M7.57587 1.09442C7.92725 0.929843 8.34213 0.983388 8.64021 1.23179L14.6402 6.23179C14.8682 6.42178 15 6.70323 15 7.00001C15 7.29679 14.8682 7.57824 14.6402 7.76823L9.56207 12L14.6402 16.2318C14.8682 16.4218 15 16.7032 15 17C15 17.2968 14.8682 17.5782 14.6402 17.7682L8.64021 22.7682C8.34213 23.0166 7.92725 23.0702 7.57587 22.9056C7.22449 22.741 7.00003 22.388 7.00003 22V14.1351L2.64021 17.7682C2.21593 18.1218 1.58537 18.0645 1.2318 17.6402C0.87824 17.2159 0.935564 16.5854 1.35984 16.2318L6.43798 12L1.35984 7.76823C0.935564 7.41467 0.87824 6.7841 1.2318 6.35983C1.58537 5.93555 2.21593 5.87823 2.64021 6.23179L7.00003 9.86497V2.00001C7.00003 1.61199 7.22449 1.259 7.57587 1.09442ZM9.00002 14.1351L12.438 17L9.00002 19.865V14.1351ZM9.00002 9.86497V4.13505L12.438 7.00001L9.00002 9.86497Z" fill="#801ED7"/>
</svg>
